X: 39176
T: Swimming In The Gutter
R: jig
M: 6/8
K: Bminor
FA|:"Bm"B3 FDF|B^AB FDF|"Em"B^AB dcB|"A"~g2f "F"edc|
"Bm"~B3 ~F3|"F#"~B3 ~F3|"Em"~B3 "F"~f2e|1 "Bm"dB^A B3:|2 "Bm"dB^A BAG||
K: Dmaj
|:"D"FAd dcd|faf dcd|"F#"BgB "D"AfA|"Em"Gfd "A"cAG|
"D"FAd dcd|faf dcd|"F#"BgB "D"Afd|1 "A"cBc "D"d3:|2 "A"cBc "F"dFA||

